X:15632
T:Smash the Windows. GS.059
T:Roaring Jelly,aka. GS.059
M:6/8
L:1/8
Q:120
S:George Spencer m/s, Leeds,1831
R:Jig
O:England
A:Leeds
N:No repeat marks shown at end of B musi
H:1831
Z:vmp.Cherri Graebe
K:D major
"see note"D2FA2c | d2f ecA | G2GF2F | E2F GFE | D2FA2c |! d2f ecA | (Bgf
) edc |
 d3d2 :||:
f/g/ | a2fd2a | B2a (agf) |! g2ec2e | A2g gfe | f2dg2e | a2fb2g | fed ed
c |
d3d2 :||
